findly-builder/apps/searchassist/src/assets/icons/sidemenu/dropdownup.svg

<svg width="8" height="6" viewBox="0 0 8 6" fill="none" xmlns="http://www.w3.org/2000/svg">
<path fill-rule="evenodd" clip-rule="evenodd" d="M4 5.25C3.87305 5.25 3.76318 5.20052 3.67041 5.10156L0.38916 1.60156C0.296387 1.5026 0.249999 1.38542 0.249999 1.25C0.249999 1.11458 0.296387 0.997395 0.38916 0.898436C0.481934 0.799478 0.591797 0.749999 0.71875 0.749999L7.28125 0.749999C7.4082 0.749999 7.51807 0.799479 7.61084 0.898437C7.70361 0.997396 7.75 1.11458 7.75 1.25C7.75 1.38542 7.70361 1.5026 7.61084 1.60156L4.32959 5.10156C4.23682 5.20052 4.12695 5.25 4 5.25Z" fill="#202124"/>
</svg>

<svg width="8" height="6" fill="none" xmlns="http://www.w3.org/2000/svg"><path fill-rule="evenodd" clip-rule="evenodd" d="M4 5.25a.437.437 0 0 1-.33-.148l-3.28-3.5a.497.497 0 0 1-.14-.352c0-.135.046-.253.14-.352A.437.437 0 0 1 .718.75H7.28c.127 0 .237.05.33.148a.5.5 0 0 1 .139.352.497.497 0 0 1-.14.352l-3.28 3.5A.437.437 0 0 1 4 5.25Z" fill="#202124"/></svg>
